X:1     %Music
T:Drill ye Tarriers, Drill
B:Singing Together, Spring 1978, BBC Publications
F:http://www.folkinfo.org/songs
M:4/4     %Meter
L:1/8     %
K:Eb
C2 C2 EE E2 |CC C2 E2 F2 |G2 G2 GG GG |GG GG G2 
w:Ev'-ry morn-ing at sev-en o'-clock There's twen-ty tar-ri-ers a-work-ing at the rock, 
GG |C2 CC E2 EE |C2 C2 E2
w:And the boss comes a-long and he says "Keep still, 
 F2 |G2 G2 GG GG |G2 GG G2 
w:And come down hea-vy with the cast i-ron drill." 
F2 |E2 E2 DD D2 |C8 |c2 c2 dd B2 |c6 
w:And drill ye tar-ri-ers, drill, Drill, ye tar-ri-ers, drill. 
cd |e2 d2 c2 BB |GG GG G4 |G3 F G3 F |G2 G4 
w:And you work all day for the su-gar in your tea, Down be-hind the rail-way. 
F2 |E2 E2 DD D2 |C6 E2 |C6 E2 |C6  |]
w:And drill, ye tar-ri-ers, drill. And blast and fire! 